dist/img/statistics/bg.svg

<svg width="1920" height="1107" viewBox="0 0 1920 1107" fill="none" xmlns="http://www.w3.org/2000/svg">
<path d="M-1629.14 37.8201C-1335.9 93.3661 -1077.86 76.474 -1077.86 76.474C-1077.86 76.474 -729.114 40.4939 -637.523 29.0362C-545.931 17.5786 -703.147 47.9388 -501 69.9173C-298.852 91.8959 306.581 32.3818 543 52.4173C749.5 69.9173 905.998 98.7065 1216.5 99.3466C1463.12 99.855 1582.73 108.064 1905 52.4174C2170.97 6.49136 2290.09 -54.6461 2410.78 99.3466C2531.47 253.339 3249.78 672.027 3150.27 719.485C2604.16 979.938 1727.79 1065.93 1173.32 1059.94C977.591 1058.69 373.231 969.253 8.59307 1085.19L-123.109 1106.06L-1749.63 638.859L-1742.97 36.5619L-1629.14 37.8201Z" fill="url(#paint0_linear_167_5303)"/>
<defs>
<linearGradient id="paint0_linear_167_5303" x1="357.803" y1="-45.6313" x2="155.596" y2="1532.29" gradientUnits="userSpaceOnUse">
<stop stop-color="#040114"/>
<stop offset="0.123946" stop-color="#080435"/>
<stop offset="0.453633" stop-color="#130F3D"/>
<stop offset="1"/>
</linearGradient>
</defs>
</svg>

<svg width="1920" height="1107" viewBox="0 0 1920 1107" fill="none" xmlns="http://www.w3.org/2000/svg"><path d="M-1629.14 37.82c293.24 55.546 551.28 38.654 551.28 38.654s348.746-35.98 440.337-47.438C-545.931 17.58-703.147 47.94-501 69.917c202.148 21.979 807.581-37.535 1044-17.5 206.5 17.5 362.998 46.29 673.5 46.93 246.62.508 366.23 8.717 688.5-46.93 265.97-45.926 385.09-107.063 505.78 46.93 120.69 153.992 839 572.68 739.49 620.138-546.11 260.453-1422.48 346.445-1976.95 340.455-195.729-1.25-800.089-90.687-1164.727 25.25l-131.702 20.87-1626.521-467.201 6.66-602.297 113.83 1.258z" fill="url(#paint0_linear_167_5303)"/><defs><linearGradient id="paint0_linear_167_5303" x1="357.803" y1="-45.631" x2="155.596" y2="1532.29" gradientUnits="userSpaceOnUse"><stop stop-color="#040114"/><stop offset=".124" stop-color="#080435"/><stop offset=".454" stop-color="#130F3D"/><stop offset="1"/></linearGradient></defs></svg>
